home/.icons/Gruvbox-Plus-Dark/status/32/trophy-bronze.svg

<svg xmlns="http://www.w3.org/2000/svg" width="32" height="32" version="1">
 <path d="M 6.2578125,2.9998531 A 7.806572,6.8811115 69.601561 0 0 5.2460938,3.482275 7.806572,6.8811115 69.601561 0 0 3.0917969,13.876806 7.806572,6.8811115 69.601561 0 0 12.751953,17.117041 7.806572,6.8811115 69.601561 0 0 14.908203,6.7225093 7.806572,6.8811115 69.601561 0 0 10.648438,2.9998531 Z m 2.2246094,2.4492188 c 1.4754034,0.037402 3.0498711,0.9432476 4.0292971,2.7226562 1.42462,2.5882309 0.695288,5.3992929 -1.109375,6.4921869 C 9.5976817,15.756812 6.9129012,15.015818 5.4882812,12.427587 4.0636605,9.8393562 4.7929944,7.0302486 6.5976562,5.9373531 7.1616137,5.5958233 7.8117831,5.4320711 8.4824219,5.4490719 Z" style="opacity:0.2"/>
 <path d="M 21.333984,2.9998531 A 6.8811115,7.806572 20.398439 0 0 17.091797,6.7225093 6.8811115,7.806572 20.398439 0 0 19.248047,17.117041 6.8811115,7.806572 20.398439 0 0 28.908203,13.876806 6.8811115,7.806572 20.398439 0 0 26.753906,3.482275 6.8811115,7.806572 20.398439 0 0 25.742188,2.9998531 Z m 2.183594,2.4492188 c 0.670727,-0.017162 1.320809,0.1447984 1.884766,0.4863281 1.804663,1.0928956 2.533995,3.9039562 1.109375,6.492187 -1.42462,2.588231 -4.109401,3.329225 -5.914063,2.236328 -1.804662,-1.092894 -2.535948,-3.903956 -1.111328,-6.4921869 0.979426,-1.7794087 2.555652,-2.6849004 4.03125,-2.7226562 z" style="opacity:0.2"/>
 <rect style="opacity:0.2" width="20" height="3" x="6" y="28" rx="1.429" ry="1.5"/>
 <path style="fill:#d65d0e" d="M 21.333984 2 A 6.8811115 7.806572 20.398439 0 0 17.091797 5.7226562 A 6.8811115 7.806572 20.398439 0 0 19.248047 16.117188 A 6.8811115 7.806572 20.398439 0 0 28.908203 12.876953 A 6.8811115 7.806572 20.398439 0 0 26.753906 2.4824219 A 6.8811115 7.806572 20.398439 0 0 25.742188 2 L 21.333984 2 z M 23.517578 4.4492188 C 24.188305 4.4320568 24.838387 4.5940172 25.402344 4.9355469 C 27.207007 6.0284425 27.936339 8.8395031 26.511719 11.427734 C 25.087099 14.015965 22.402318 14.756959 20.597656 13.664062 C 18.792994 12.571168 18.061708 9.7601058 19.486328 7.171875 C 20.465754 5.3924663 22.04198 4.4869746 23.517578 4.4492188 z"/>
 <path style="fill:#d65d0e" d="M 6.2578125 2 A 7.806572 6.8811115 69.601561 0 0 5.2460938 2.4824219 A 7.806572 6.8811115 69.601561 0 0 3.0917969 12.876953 A 7.806572 6.8811115 69.601561 0 0 12.751953 16.117188 A 7.806572 6.8811115 69.601561 0 0 14.908203 5.7226562 A 7.806572 6.8811115 69.601561 0 0 10.648438 2 L 6.2578125 2 z M 8.4824219 4.4492188 C 9.9578253 4.4866207 11.532293 5.3924664 12.511719 7.171875 C 13.936339 9.7601058 13.207007 12.571168 11.402344 13.664062 C 9.5976817 14.756959 6.9129012 14.015965 5.4882812 11.427734 C 4.0636605 8.8395031 4.7929944 6.0303955 6.5976562 4.9375 C 7.1616137 4.5959702 7.8117831 4.432218 8.4824219 4.4492188 z"/>
 <rect style="fill:#d65d0e" width="6" height="12.6" x="13" y="16"/>
 <path d="m 6.9999999,3.6921601 v 6.5769229 c 0,3.249983 4.0294371,10.73077 9.0000001,10.73077 4.970563,0 9,-7.480787 9,-10.73077 V 3.6921601 Z" style="opacity:0.2"/>
 <path style="fill:#fe8019" d="M 6.9999999,2.692307 V 9.2692302 C 6.9999999,12.519213 11.029437,20 16,20 20.970563,20 25,12.519213 25,9.2692302 V 2.692307 Z"/>
 <rect width="22" height="3" x="5" y="3" rx="1.375" ry="1.5" style="opacity:0.2"/>
 <rect style="fill:#fe8019" width="22" height="3" x="5" y="2" rx="1.375" ry="1.5"/>
 <path style="fill:#fe8019" d="M 16,23.999956 A 6.300066,4.2000438 0 0 0 9.6999341,28.2 H 22.300066 A 6.300066,4.2000438 0 0 0 16,23.999956 Z"/>
 <rect width="20" height="3" x="6" y="27" rx="1.429" ry="1.5" style="fill:#504945"/>
 <path style="opacity:0.2;fill:#ebdbb2" d="M 6.375 2 C 5.61325 2 5 2.669 5 3.5 C 5 3.6767779 5.0329548 3.842765 5.0839844 4 C 5.2728354 3.4181029 5.7752965 3 6.375 3 L 25.625 3 C 26.224704 3 26.727165 3.4181029 26.916016 4 C 26.967045 3.842765 27 3.6767779 27 3.5 C 27 2.669 26.38675 2 25.625 2 L 6.375 2 z"/>
</svg>

<svg width="32" height="32" version="1" xmlns="http://www.w3.org/2000/svg">
  <path d="m6.2578 2.9999a7.8066 6.8811 69.602 0 0-1.0117 0.48242 7.8066 6.8811 69.602 0 0-2.1543 10.395 7.8066 6.8811 69.602 0 0 9.6602 3.2402 7.8066 6.8811 69.602 0 0 2.1562-10.395 7.8066 6.8811 69.602 0 0-4.2598-3.7227zm2.2246 2.4492c1.4754 0.037402 3.0499 0.94325 4.0293 2.7227 1.4246 2.5882 0.69529 5.3993-1.1094 6.4922-1.8047 1.0929-4.4894 0.3519-5.9141-2.2363-1.4246-2.5882-0.69529-5.3973 1.1094-6.4902 0.56396-0.34153 1.2141-0.50528 1.8848-0.48828z" fill="#282828" opacity=".2"/>
  <path d="m21.334 2.9999a6.8811 7.8066 20.398 0 0-4.2422 3.7227 6.8811 7.8066 20.398 0 0 2.1562 10.395 6.8811 7.8066 20.398 0 0 9.6602-3.2402 6.8811 7.8066 20.398 0 0-2.1543-10.395 6.8811 7.8066 20.398 0 0-1.0117-0.48242zm2.1836 2.4492c0.67073-0.017162 1.3208 0.1448 1.8848 0.48633 1.8047 1.0929 2.534 3.904 1.1094 6.4922-1.4246 2.5882-4.1094 3.3292-5.9141 2.2363-1.8047-1.0929-2.5359-3.904-1.1113-6.4922 0.97943-1.7794 2.5557-2.6849 4.0312-2.7227z" fill="#282828" opacity=".2"/>
  <rect x="6" y="28" width="20" height="3" rx="1.429" ry="1.5" fill="#282828" opacity=".2"/>
  <path d="m21.334 2a6.8811 7.8066 20.398 0 0-4.2422 3.7227 6.8811 7.8066 20.398 0 0 2.1562 10.395 6.8811 7.8066 20.398 0 0 9.6602-3.2402 6.8811 7.8066 20.398 0 0-2.1543-10.395 6.8811 7.8066 20.398 0 0-1.0117-0.48242h-4.4082zm2.1836 2.4492c0.67073-0.017162 1.3208 0.1448 1.8848 0.48633 1.8047 1.0929 2.534 3.904 1.1094 6.4922-1.4246 2.5882-4.1094 3.3292-5.9141 2.2363-1.8047-1.0929-2.5359-3.904-1.1113-6.4922 0.97943-1.7794 2.5557-2.6849 4.0312-2.7227z" fill="#d65d0e"/>
  <path d="m6.2578 2a7.8066 6.8811 69.602 0 0-1.0117 0.48242 7.8066 6.8811 69.602 0 0-2.1543 10.395 7.8066 6.8811 69.602 0 0 9.6602 3.2402 7.8066 6.8811 69.602 0 0 2.1562-10.395 7.8066 6.8811 69.602 0 0-4.2598-3.7227h-4.3906zm2.2246 2.4492c1.4754 0.037402 3.0499 0.94325 4.0293 2.7227 1.4246 2.5882 0.69529 5.3993-1.1094 6.4922-1.8047 1.0929-4.4894 0.3519-5.9141-2.2363-1.4246-2.5882-0.69529-5.3973 1.1094-6.4902 0.56396-0.34153 1.2141-0.50528 1.8848-0.48828z" fill="#d65d0e"/>
  <rect x="13" y="16" width="6" height="12.6" fill="#d65d0e"/>
  <path d="m7 3.6922v6.5769c0 3.25 4.0294 10.731 9 10.731s9-7.4808 9-10.731v-6.5769z" fill="#282828" opacity=".2"/>
  <path d="m7 2.6923v6.5769c0 3.25 4.0294 10.731 9 10.731s9-7.4808 9-10.731v-6.5769z" fill="#fe8019"/>
  <rect x="5" y="3" width="22" height="3" rx="1.375" ry="1.5" fill="#282828" opacity=".3"/>
  <rect x="5" y="2" width="22" height="3" rx="1.375" ry="1.5" fill="#fe8019"/>
  <path d="m16 24a6.3001 4.2 0 0 0-6.3001 4.2h12.6a6.3001 4.2 0 0 0-6.3001-4.2z" fill="#fe8019"/>
  <rect x="6" y="27" width="20" height="3" rx="1.429" ry="1.5" fill="#504945"/>
  <path d="m6.375 2c-0.76175 0-1.375 0.669-1.375 1.5 0 0.17678 0.032955 0.34276 0.083984 0.5 0.18885-0.5819 0.69131-1 1.291-1h19.25c0.5997 0 1.1022 0.4181 1.291 1 0.051029-0.15724 0.083984-0.32322 0.083984-0.5 0-0.831-0.61325-1.5-1.375-1.5h-19.25z" fill="#ebdbb2" opacity=".2"/>
</svg>
